X:313
T:B313-  Monsieur's Almain
Q:1/4=120
L:1/4
M:C
K:C
c2cc|d2dd|e/f/gfd|e2e3/2f/|\
e/f/gfe|d3g|fed/c/d|c2c2::\
cB/c/dc/d/|e2e2|fde^c|d2d2|\
g3/2f/ed/c/|d3c/B/|AcBA/B/|c2c2:|]

